flaticon/science/cells-5.svg

<svg xmlns="http://www.w3.org/2000/svg" width="32" height="32" viewBox="0 0 24 24">
    <path d="M 23.8125 16.074219 L 20.417969 14 L 20.417969 9.9375 L 23.8125 7.484375 C 23.972656 7.363281 24.011719 7.085938 23.894531 6.925781 C 23.773438 6.765625 23.492188 6.726562 23.332031 6.84375 L 19.976562 9.28125 L 16.378906 6.964844 L 16.378906 2.769531 C 16.378906 2.53125 16.222656 2.371094 15.980469 2.371094 C 15.742188 2.371094 15.582031 2.53125 15.582031 2.769531 L 15.582031 7.015625 L 12.003906 9.339844 L 8.390625 6.988281 L 8.390625 2.769531 C 8.390625 2.53125 8.230469 2.371094 7.988281 2.371094 C 7.75 2.371094 7.589844 2.53125 7.589844 2.769531 L 7.589844 7.003906 L 3.996094 9.324219 L 0.597656 7.285156 C 0.398438 7.164062 0.160156 7.207031 0.0390625 7.40625 C -0.0429688 7.605469 0 7.84375 0.199219 7.964844 L 3.59375 10.039062 L 3.59375 13.992188 L 0.160156 16.476562 C 0 16.59375 -0.0429688 16.875 0.078125 17.035156 C 0.199219 17.195312 0.476562 17.234375 0.636719 17.113281 L 3.996094 14.675781 L 7.589844 16.996094 L 7.589844 21.230469 C 7.589844 21.46875 7.75 21.628906 7.988281 21.628906 C 8.230469 21.628906 8.390625 21.429688 8.390625 21.230469 L 8.390625 17.050781 L 12.035156 14.679688 L 15.582031 16.984375 L 15.582031 21.230469 C 15.582031 21.46875 15.742188 21.628906 15.980469 21.628906 C 16.222656 21.628906 16.378906 21.429688 16.378906 21.191406 L 16.378906 17.050781 L 20.003906 14.695312 L 23.375 16.753906 C 23.574219 16.875 23.8125 16.835938 23.933594 16.636719 C 24.050781 16.433594 24.011719 16.195312 23.8125 16.074219 Z M 12.425781 9.976562 L 15.980469 7.683594 L 19.578125 10.003906 L 19.578125 13.996094 L 15.980469 16.316406 L 12.425781 14.023438 Z M 11.585938 13.996094 L 7.988281 16.316406 L 4.394531 13.996094 L 4.394531 10.003906 L 7.988281 7.683594 L 11.585938 10.003906 Z M 11.585938 13.996094"/>
    <path d="M5.59375 12C5.59375 13.320312 6.671875 14.398438 7.988281 14.398438 9.308594 14.398438 10.386719 13.320312 10.386719 12 10.386719 10.679688 9.308594 9.601562 7.988281 9.601562 6.671875 9.601562 5.59375 10.679688 5.59375 12zM9.589844 12C9.589844 12.878906 8.867188 13.597656 7.988281 13.597656 7.109375 13.597656 6.390625 12.878906 6.390625 12 6.390625 11.121094 7.109375 10.402344 7.988281 10.402344 8.867188 10.402344 9.589844 11.121094 9.589844 12zM18.378906 12C18.378906 10.679688 17.300781 9.601562 15.980469 9.601562 14.664062 9.601562 13.582031 10.679688 13.582031 12 13.582031 13.320312 14.664062 14.398438 15.980469 14.398438 17.300781 14.398438 18.378906 13.320312 18.378906 12zM14.382812 12C14.382812 11.121094 15.101562 10.402344 15.980469 10.402344 16.859375 10.402344 17.578125 11.121094 17.578125 12 17.578125 12.878906 16.859375 13.597656 15.980469 13.597656 15.101562 13.597656 14.382812 12.878906 14.382812 12zM14.382812 12"/>
</svg>

<svg xmlns="http://www.w3.org/2000/svg" width="32" height="32" viewBox="0 0 24 24">
    <path d="M23.813 16.074L20.418 14V9.937l3.395-2.453c.16-.12.199-.398.082-.558-.122-.16-.403-.2-.563-.082L19.977 9.28l-3.598-2.316V2.77c0-.239-.156-.399-.399-.399-.238 0-.398.16-.398.399v4.246L12.004 9.34 8.39 6.988V2.77c0-.239-.16-.399-.403-.399-.238 0-.398.16-.398.399v4.234l-3.594 2.32L.598 7.285c-.2-.12-.438-.078-.559.121-.082.2-.039.438.16.559l3.395 2.074v3.953L.16 16.477c-.16.117-.203.398-.082.558.121.16.399.2.559.078l3.36-2.437 3.593 2.32v4.234c0 .239.16.399.398.399a.4.4 0 0 0 .403-.399v-4.18l3.644-2.37 3.547 2.304v4.246c0 .239.16.399.398.399.243 0 .399-.2.399-.438v-4.14l3.625-2.356 3.371 2.059c.2.121.438.082.559-.117.117-.203.078-.442-.122-.563zM12.425 9.977l3.554-2.293 3.598 2.32v3.992l-3.598 2.32-3.554-2.293zm-.84 4.02l-3.598 2.32-3.593-2.32v-3.993l3.593-2.32 3.598 2.32zm0 0"/>
    <path d="M5.594 12a2.403 2.403 0 0 0 2.394 2.398A2.404 2.404 0 0 0 10.387 12a2.404 2.404 0 0 0-2.399-2.398A2.403 2.403 0 0 0 5.594 12zm3.996 0c0 .879-.723 1.598-1.602 1.598A1.602 1.602 0 0 1 6.391 12c0-.879.718-1.598 1.597-1.598.88 0 1.602.72 1.602 1.598zm0 0M18.379 12a2.404 2.404 0 0 0-2.399-2.398A2.406 2.406 0 0 0 13.582 12a2.406 2.406 0 0 0 2.398 2.398A2.404 2.404 0 0 0 18.38 12zm-3.996 0c0-.879.719-1.598 1.597-1.598.88 0 1.598.72 1.598 1.598 0 .879-.719 1.598-1.598 1.598A1.602 1.602 0 0 1 14.383 12zm0 0"/>
</svg>
